X: 39112
T: Sweeper's Tune, The
R: waltz
M: 3/4
K: Bminor
d4e2|:f3def B2d2f2|a4f2 d2f2d2|e3cde d2c2B2|A2F2A2 c2d2e2|
f2e2d2 B2d2f2|a4f2 d2f2d2|e3cde d2c2B2|1 B8 f2g2:|2 B8 d2e2||
|:f2d2A2 A2d2f2|e2d2c2 c2d2c2|B2c2d2 c2d2e2|d2e2f2 f2e2d2|
f3def A2d2f2|e2d2c2 c2d2c2|B3cde f2e2d2|1 B8 d2e2:|2 B8 f2g2||

